assets/svg/0032-20e3.svg

<svg xmlns="http://www.w3.org/2000/svg" viewBox="0 0 64 64" enable-background="new 0 0 64 64"><path fill="#d0d0d0" d="m62 52c0 5.523-4.478 10-10 10h-40c-5.522 0-10-4.477-10-10v-40c0-5.523 4.478-10 10-10h40c5.522 0 10 4.477 10 10v40"/><path fill="#fff" d="M57,45.666C57,50.27,53.269,54,48.667,54H15.333C10.731,54,7,50.27,7,45.666V12.334
			C7,7.73,10.731,4,15.333,4h33.334C53.269,4,57,7.73,57,12.334V45.666z"/><path fill="#9aa0a5" d="m42 39.33v5.674h-20c.216-2.146.865-4.178 1.949-6.098 1.083-1.922 3.221-4.467 6.416-7.643 2.571-2.564 4.148-4.303 4.731-5.217.784-1.26 1.177-2.508 1.177-3.738 0-1.363-.342-2.41-1.025-3.143s-1.627-1.098-2.832-1.098c-1.191 0-2.14.385-2.843 1.152-.704.768-1.11 2.045-1.218 3.826l-5.686-.609c.338-3.361 1.401-5.773 3.188-7.238 1.788-1.462 4.02-2.194 6.702-2.194 2.936 0 5.246.848 6.924 2.543s2.517 3.805 2.517 6.326c0 1.434-.24 2.801-.721 4.098-.48 1.299-1.242 2.656-2.284 4.076-.691.941-1.937 2.297-3.737 4.064-1.799 1.77-2.94 2.943-3.42 3.523-.48.578-.871 1.145-1.168 1.695h11.33"/></svg>

<svg xmlns="http://www.w3.org/2000/svg" width="64" height="64" viewBox="0 0 64 64"><path fill="#D0D0D0" d="M62 52c0 5.523-4.478 10-10 10H12C6.478 62 2 57.523 2 52V12C2 6.477 6.478 2 12 2h40c5.522 0 10 4.477 10 10v40z"/><path fill="#FFF" d="M57 45.666A8.333 8.333 0 0 1 48.667 54H15.333A8.333 8.333 0 0 1 7 45.666V12.334A8.333 8.333 0 0 1 15.333 4h33.334A8.333 8.333 0 0 1 57 12.334v33.332z"/><g><path fill="#9AA0A5" d="M42 39.326V45H22a15.421 15.421 0 0 1 1.949-6.098c1.083-1.922 3.221-4.467 6.416-7.643 2.571-2.564 4.148-4.303 4.731-5.217.784-1.26 1.177-2.508 1.177-3.738 0-1.363-.342-2.41-1.025-3.143s-1.627-1.098-2.832-1.098c-1.191 0-2.14.385-2.843 1.152-.704.768-1.11 2.045-1.218 3.826l-5.686-.609c.338-3.361 1.401-5.773 3.188-7.238C27.645 13.732 29.878 13 32.559 13c2.936 0 5.246.848 6.924 2.543S42 19.348 42 21.869c0 1.434-.24 2.801-.721 4.098-.48 1.299-1.242 2.656-2.284 4.076-.691.941-1.937 2.297-3.737 4.064-1.799 1.77-2.94 2.943-3.42 3.523a10.48 10.48 0 0 0-1.168 1.695H42z"/></g></svg>
